X: 843
T: Alborada D'A Allunquía
R: reel
M: 4/4
K: Gmajor
~g3f gfaf ~g3f ~e3f|~g3f gfag d6Bd|~g3f gfaf ~g3f ~e3f|~g3f gfag d6ed|
cBAB cAdc BAGA BGcB|AGFG ABcA d6ed|cBAB cAdc BAGA AGcB|AGFA dcBA G6DG
|:A2DA B2DB c2Gc d2Gd|~e3f gfge d6G2|A2DA B2DB c2Gc d2dc|1 ~A3B cAFA G6DG:|2 ~A3B cAFA G6Bd||
~f3a fafa ~f3a fafa|~g3a gaga ~g3a gaga|~f3a fafa ~f3a fafa|~g3a gaga ~g3a gfed|
~c3e cece ~c3F GABc|~B3d BdBd ~B3E FGAB|~A3d AdAd ~A3F GABc|B3G ABcd c3F GABc|
B3E FGAB A3B G3B|A3B G3B A3B AGFE|DFGA B^cde:|

